X: 1
T: String Quartet in B\b Major opus 55 no 3 mvt 4
C: Franz Joseph Haydn
%%abc-version 2.0
%%abcx-abcm2ps-target-version 5.9.1 (29 Sep 2008)
%%abc-creator hum2abc beta
%%abcx-conversion-date 2021/02/14 14:38:34
%%abc-copyright Copyright (c) 1994, 2000 Center for Computer Assisted Research in the Humanities
%%abc-edited-by Walter Hewlett
%%abcx-initial-encoding-date 1994/11/09
%%gracespace 0 6 6
%%humdrum-veritas 2497748787
%%humdrum-veritas-data 1243342336
%%linebreak <none>
%%barnumbers 0
L: 1/16
M: 6/8
N: Derived from op55n3-04.krn
Q: "Finale: Presto"
%%staves [1 2 3 4]
V: 1 clef=treble
V: 2 clef=treble
V: 3 clef=alto
V: 4 clef=bass
K: Bb
[V:1]bax8x2[I:setbarnb1]|
[V:2]z2x8x2|
[V:3]z2x8x2|
[V:4]z2x8x2|
[V:1]gf.e.dgf ed.c.Bed |
[V:2]z4z2 z4ed |
[V:3]z4z2 z4ED |
[V:4]z4z2 z4ED |
[V:1].c.B.A.G.F.E DFEGFA |
[V:2].c.B.A.G.F.E .D2.E2.F2 |
[V:3].C.B,.A,.G,.F,.E, .D,2.E,2.F,2 |
[V:4].C.B,.A,.G,.F,.E, .D,2.E,2.F,2 |
[V:1]GBAcBd cdecdB |
[V:2].G2.A2.B2 F6 |
[V:3].G,2.A,2.B,2 C4B,2 |
[V:4].G,2.A,2.B,2 A,4B,2 |
[V:1]=efef.d.B f4ba |
[V:2].c2.c2.d2 c4z2 |
[V:3].A,2.A,2.B,2 A,4z2 |
[V:4].F,2.F,2.F,2 F,4z2 |
[V:1]gf.e.dgf ed.c.Bed |
[V:2]z4z2 z4ed |
[V:3]z4z2 z4ED |
[V:4]z4z2 z4ED |
[V:1].c.B.A.G.F.E DFEGFA |
[V:2].c.B.A.G.F.E .D2.E2.F2 |
[V:3].C.B,.A,.G,.F,.E, .D,2.E,2.F,2 |
[V:4].C.B,.A,.G,.F,.E, .D,2.E,2.F,2 |
[V:1]GBAcBd cg^fgec |
[V:2].G2.A2.B2 c6 |
[V:3].G,2.A,2.B,2 G,4G2 |
[V:4].G,2.A,2.B,2 E,6 |
[V:1]Bd=fdec B4b2 |
[V:2]B2dBcA BcdedB |
[V:3]D4CE DEFGFD |
[V:4]F,2.F,2.F,2 B,,4z2 |
[V:1]a2.a2c'f .f'2.f'2d'b |
[V:2]edcBAc BcdcBd |
[V:3]CDEDCE DCB,CDF |
[V:4]F,4z2 B,,4z2 |
[V:1].a2.a2c'f .b2.b2b2 |
[V:2]edcBAc BcdedB |
[V:3]CDEDCE DEFGFD |
[V:4]F,4z2 B,,4z2 |
[V:1]a2.a2c'f .f'2.f'2d'b |
[V:2]edcBAc BcdcBd |
[V:3]CDEDCE DCB,CDF |
[V:4]z2F,2F,2 z2B,,2B,,2 |
[V:1].a2.a2c'f b2b2d'^c' |
[V:2]edcBAc B2B2d^c |
[V:3]CDEDCE D2D2A2 |
[V:4]z2F,2F,2 B,,4^F2 |
[V:1]d'^c'd'c'd'a babg!sfz!=c'=b |
[V:2]d^cdcdA BABG!sfz!=c=B |
[V:3]A2A2A2 B2z2!sfz!G2 |
[V:4]^F2F2F2 G2z2=E2 |
[V:1]c'=bc'bc'g agafcf |
[V:2]c=BcBcG AGAFA2 |
[V:3]G2G2G2 A4z2 |
[V:4]=E2E2E2 F4z2 |
[V:1]=egecfa gbgcaf |
[V:2].B2B2A2 .=E2E2F2 |
[V:3]c12- |
[V:4]z12 |
[V:1]=egecfa gbgcaf |
[V:2].G2G2A2 .B2B2A2 |
[V:3]c12 |
[V:4].B,2B,2A,2 .=E,2E,2F,2 |
[V:1]c'2c'2c'2 c'2c'2c'2 |
[V:2]c2c2c2 c2c2c2 |
[V:3]C=EDFEG FAGFED |
[V:4]C,4z2 z4z2 |
[V:1]c'2c'2c'2 c'2c'2c'2 |
[V:2]c2c2c2 c2c2c2 |
[V:3]=ECFDGE AFEDC=B, |
[V:4]C,=E,D,F,E,G, F,A,G,F,E,D, |
[V:1]c'2=b2.b2 b2_b2.b2 |
[V:2]c2f2.f2 f2g2.g2 |
[V:3]C2D2.D2 D2C2.C2 |
[V:4]C,2D,2.D,2 D,2=E,2.E,2 |
[V:1]!sfz!b4>-b4 babc' |
[V:2]!sfz!g4>-g4 z2z2 |
[V:3]!sfz!C4>-C4 z2z2 |
[V:4]!sfz!=E,4>-E,4 z2z2 |
[V:1]d'2z2z2 z4.a2 |
[V:2]z12 |
[V:3]z12 |
[V:4]z12 |
[V:1]a2b2a2 .g2.f2.g2 |
[V:2]f2g2f2 .c2.c2.c2 |
[V:3]F,G,A,B,CD =EFGABc |
[V:4]z12 |
[V:1]f4a2 c'2=b2_b2 |
[V:2]cAFAcf a2^g2=g2 |
[V:3]A4z2 z4z2 |
[V:4]z12 |
[V:1]a2b2a2 .g2.f2.g2 |
[V:2]f2g2f2 .c2.c2.c2 |
[V:3]z12 |
[V:4]F,,G,,A,,B,,C,D, =E,F,G,A,B,C |
[V:1]f4a2 c'2=b2_b2 |
[V:2]cAFAcf a2^g2=g2 |
[V:3]z12 |
[V:4]A,4z2 z4z2 |
[V:1]a2b2a2 .g2.f2.g2 |
[V:2]f2g2f2 .c2.c2.c2 |
[V:3]F,G,A,B,CD =EFGABc |
[V:4]z12 |
[V:1]f4>-f4 .g2.a2 |
[V:2]c4cB .A2.B2.c2 |
[V:3]ABcded .c2.B2.A2 |
[V:4]F,,G,,A,,B,,C,D, E,2E,2E,2 |
[V:1]!trill!b6 d'4d'2 |
[V:2]B6 b4b2 |
[V:3]F2F2F2 F2F2F2 |
[V:4]D,2D,2D,2 B,,2B,,2B,,2 |
[V:1].c'2.a2.c'2 .b2.a2.g2 |
[V:2].a2.f2.a2 .g2.f2.=e2 |
[V:3]c2c2c2 C2C2C2 |
[V:4]C,2C,2C,2 C,2C,2C,2 |
[V:1]f=efgab .c'2.c'2.c'2 |
[V:2]f4z2 z4.A2 |
[V:3]A,4z2 z4.F2 |
[V:4]F,4z2 z4z2 |
[V:1]c'12- |
[V:2]A2B2A2 .G2.F2.G2 |
[V:3]F2G2F2 C4C2 |
[V:4]z12 |
[V:1]c'12- |
[V:2]F4A2 c2=B2_B2 |
[V:3]A,4F2 A2^G2=G2 |
[V:4]z12 |
[V:1]c'12- |
[V:2]A2B2A2 .G2.F2.G2 |
[V:3]F2G2F2 .C2.C2.C2 |
[V:4]F,,G,,A,,B,,C,D, =E,F,G,A,B,C |
[V:1]c'2.f'2.f'2 f'2=e'2_e'2 |
[V:2].F2.f2.f2 f2=e2_e2 |
[V:3]C6- C4F2 |
[V:4]A,2A,2A,2 A,2A,2A,2 |
[V:1]^c'4>d'4 =e'^f'g'a' |
[V:2]^c4>d4 =e^fga |
[V:3]F2F2F2 D2D2D2 |
[V:4]B,2B,2B,2 B,2B,2B,2 |
[V:1].b'2.b'2.b'2 .b'2.a'2.g'2 |
[V:2].b2.d'2.d'2 .d'2.=c'2.b2 |
[V:3]G2G2G2 G2A2B2 |
[V:4]B,2B,2B,2 B,2B,2B,2 |
[V:1]=f'6 !trill!g'6 |
[V:2]a2c'2.f2 !trill!=e6 |
[V:3]c2c2c2 B2B2B2 |
[V:4]C2C2C2 C,2C,2C,2 |
[V:1]f'a'.c''.a'.c''.a' f'a'.c''.a'.c''.a' |
[V:2]f2A2A2 A2A2A2 |
[V:3]A2F2F2 F2F2F2 |
[V:4]F,2F,2F,2 F,2F,2F,2 |
[V:1]f'2z2f'2 f'2z2f'2 |
[V:2]A^GAGAB c=BcBcd |
[V:3]F=EFEFG A^GAGAB |
[V:4]F,4z2 z4z2 |
[V:1]f'2z2.f'2 .f'2.f'2.f'2 |
[V:2]e2z2.e2 .e2.e2.e2 |
[V:3]c2z2.c2 .c2.c2.c2 |
[V:4]F=EFEFG .A2.A2.A2 |
[V:1]f'4z2 z4|
[V:2]e4z2 z4|
[V:3]c4z2 z4|
[V:4]A4z2 z4|
[V:1]z2x8x2[I:setbarnb42] |
[V:2]z2x8x2|
[V:3]z2x8x2|
[V:4]D,=E,x8x2|
[V:1]z12 |
[V:2]z12 |
[V:3]z2.D.=E.^F.G FG.A.B.c.d |
[V:4]^F,G,F,G,A,B, A,B,.C.D.E.D |
[V:1]z12 |
[V:2]z4z2 z4GA |
[V:3].e.d.c.B.A.G ^FGFEDC |
[V:4].C.B,.A,.G,.^F,.E, D,E,D,C,B,,A,, |
[V:1]z12 |
[V:2]=Bc.B.c.d.e de.f.g._a.g |
[V:3]=B,2.=F.E.D.C B,C.D.E.F.G |
[V:4]G,,12- |
[V:1]z4z2 z4gf |
[V:2].f.e.d.c.=B._A GAGFED |
[V:3]._A.G.F.E.D.C =B,CB,G,=A,B, |
[V:4]G,,12 |
[V:1]edc2z2 z2b_a.g.f |
[V:2]C2c'b_ag f2z2z2 |
[V:3]C2z2FE DCB,2z2 |
[V:4]CB,_A,G,F,2 B,A,G,F,E,2 |
[V:1].e.f.g.f.e.d cdedcB |
[V:2]z4EF G2z2CD |
[V:3].G.F.E.D.C.D EDCB,A,B, |
[V:4]z12 |
[V:1]=ABcBAG ^F2z2z2 |
[V:2]E2z2=A,B, C2z2z2 |
[V:3]C12 |
[V:4]CB,=A,G,^F,E, D,E,D,C,B,,A,, |
[V:1].G.B.d.g.d.B A2z2z2 |
[V:2]G,2z2z2 .A.c.^f.a.f.c |
[V:3]B,2G2B2 D2A2c2 |
[V:4]!sfz![G,6G,,6] !sfz!^F,6 |
[V:1]GBdgdB G2z2z2 |
[V:2]B2z2z2 GBegeB |
[V:3]D2G2B2 [E2G,2]G2B2 |
[V:4]!sfz!G,6 !sfz!E,6 |
[V:1]Acegec =B2z2z2 |
[V:2]A2z2z2 =Bd=f_afd |
[V:3]E2=A2c2 F2=B2d2 |
[V:4]C,6 D,6 |
[V:1]Gcegec B2z2z2 |
[V:2]c2z2z2 GB_dgdB |
[V:3]C2G2c2 _D2G2B2 |
[V:4]E,6 E,,6 |
[V:1]_Ace_aec B2z2z2 |
[V:2]_A2z2z2 GB=egeB |
[V:3]C2_A2c2 C2G2B2 |
[V:4]E,6 =E,6 |
[V:1]=Acfafc B2z2z2 |
[V:2]=A2z2z2 B_dfbfd |
[V:3]F2=A2c2 F2B2_d2 |
[V:4]E,6 _D,6 |
[V:1]B_d_gbgd B2z2z2 |
[V:2]B2z2z2 Be_gbge |
[V:3]_G2B2_d2 G2B2e2 |
[V:4]_G,6 E,6 |
[V:1]B=dfbfd B2z2z2 |
[V:2]B2z2z2 B=df_afd |
[V:3]=D2B2d2 F2B2_A2 |
[V:4]B,,6 =D,6 |
[V:1]=GBegeB _A2z2z2 |
[V:2]B2z2z2 F=BdfdB |
[V:3]B,2=G2B2 F2=B2d2 |
[V:4]E,6 D,6 |
[V:1]EGcecG F2z2z2 |
[V:2]c2z2z2 F=AcecA |
[V:3]G,2E2G2 C2=A2c2 |
[V:4]C,6 A,,6 |
[V:1]DFBdBF =E2z2z2 |
[V:2]F2z2z2 GBc=ecB |
[V:3]B,2D2F2 B,2B2=E2 |
[V:4]B,,6 G,,6 |
[V:1]F=AcfcA F4FG |
[V:2]A2z2z2 z4z2 |
[V:3]A,2F2A2 A,CFAFC |
[V:4]F,,6 F,,A,,C,F,C,A,, |
[V:1].A.B.c.d.e.f edcBAc |
[V:2][E12C12] |
[V:3]A,2A,2A,2 A,2A,2A,2 |
[V:4]F,,2F,,2F,,2 F,,2F,,2F,,2 |
[V:1]Bcdefg ababFG |
[V:2]D12 |
[V:3]B,2B,2B,2 B,2B,2B,2 |
[V:4]F,,2F,,2F,,2 F,,2F,,2F,,2 |
[V:1].A.B.c.d.e.f edcBAc |
[V:2][E12C12] |
[V:3]A,2A,2A,2 A,2A,2A,2 |
[V:4]F,,2F,,2F,,2 F,,2F,,2F,,2 |
[V:1]Bcdefg ababFG |
[V:2]D12 |
[V:3]B,2B,2B,2 B,2B,2B,2 |
[V:4]F,,2F,,2F,,2 F,,2F,,2F,,2 |
[V:1].A.B.A.B.c.d efgaba |
[V:2][E4C4]z2 z4z2 |
[V:3]A,4z2 z4z2 |
[V:4]F,,4z2 z4z2 |
[V:1]gf.e.dgf ed.c.Bed |
[V:2]z4BA GF.E.DGF |
[V:3]z4z2 z4BA |
[V:4]z12 |
[V:1].c.B.A.G.F.E DF.E.G.F.A |
[V:2].E.D.C.B,.A,.C .D2.E2.F2 |
[V:3].G.F.E.D.C.A, .B,2.C2.D2 |
[V:4]z4F,,A,, .B,,2.C,2.D,2 |
[V:1]GBAcBd cdecdB |
[V:2].G2.A2.B2 F6 |
[V:3].E2.F2.G2 C4B,2 |
[V:4].E,2.F,2.G,2 A,4B,2 |
[V:1]=efef.d.B .f2z2d_e |
[V:2].c2.c2.d2 .c2z2dc |
[V:3].A,2.A,2.B,2 .A,2z2B,C |
[V:4].F,2.F,2.F,2 F,2z2B,A, |
[V:1]fg.a.bBc de.f.gGA |
[V:2]BA.G.FBA GF.E.DGF |
[V:3]D2z2G,A, B,2z2E,F, |
[V:4]G,F,.E,.D,G,F, E,D,.C,.B,,E,D, |
[V:1].B.c.d.e.f.g f2f2f2 |
[V:2].E.D.C.B,.A,2 B,2z2z2 |
[V:3]G,2z2z2 F2F2F2 |
[V:4].C,.B,,.A,,.G,,.F,,.E,, D,,F,,E,,G,,F,,A,, |
[V:1]f2e2d2 c2c2c2 |
[V:2]z4z2 B2B2B2 |
[V:3]F2F2F2 G2G2G2 |
[V:4]G,,B,,A,,C,B,,D, E,F,G,=E,F,G, |
[V:1]c4d2 c4d2 |
[V:2]A4B2 A4B2 |
[V:3]=EFEF.D.B, EFEF.D.B, |
[V:4]=E,F,E,F,.D,.B,, E,F,E,F,.D,.B,, |
[V:1].cedede zababa |
[V:2]A4z2 e4z2 |
[V:3]F4z2 c4z2 |
[V:4]F,4z2 F,4z2 |
[V:1]z=bc'bc'b zd'e'd'e'd' |
[V:2]e4z2 c4z2 |
[V:3]A4z2 A4z2 |
[V:4]F,4z2 F,4z2 |
[V:1]e'2c'2a2 g2f2=e2 |
[V:2]!sfz!A12- |
[V:3]!sfz!C12- |
[V:4]F,12- |
[V:1]e6- !fermata!e4B/A/B/c/ |
[V:2]A6- !fermata!A4z2 |
[V:3]C6- !fermata!C4z2 |
[V:4]F,6- !fermata!F,4z2 |
[V:1]._d4.d2 .d4.d2 |
[V:2]B12 |
[V:3]E6 _F6 |
[V:4]_G,6 =G,6 |
[V:1]_d4>c4 z2c/B/c/=d/ |
[V:2]_A4>_G4 z2z2 |
[V:3]=F4>E4 z2z2 |
[V:4]_A,4>-A,4 z2z2 |
[V:1].e4.e2 .e4.e2 |
[V:2]c12 |
[V:3]_G12 |
[V:4]_A,6 =A,6 |
[V:1]e4>d4 z2d/c/d/=e/ |
[V:2]B4>_A4 z2z2 |
[V:3]=G4>F4 z2z2 |
[V:4]B,4>-B,4 z2z2 |
[V:1].f4.f2 .f4.f2 |
[V:2]d6 c6 |
[V:3]_A12 |
[V:4]=B,6 C6 |
[V:1]f4=e2 z4!trill!c2 |
[V:2]=B4>_B4 z2z2 |
[V:3]G4>-G4 z2z2 |
[V:4]_D4>C4 z2z2 |
[V:1]e6 d4.B2 |
[V:2]c6 B4.F2 |
[V:3]_G6 F4.F2 |
[V:4]=A,6 B,4.D,2 |
[V:1]=Gedc=Bc ^fg=fedc |
[V:2]=G4z2 z4z2 |
[V:3]E4z2 z4z2 |
[V:4]E,12 |
[V:1]B6 !trill!c6 |
[V:2]D2D2D2 E2E2E2 |
[V:3]B2B2B2 =A2A2A2 |
[V:4]F,2F,2F,2 F,2F,2F,2 |
[V:1]BABcde .f2.f2.f2 |
[V:2]D4z2 z4.d2 |
[V:3]B4z2 z4.B2 |
[V:4]B,,4z2 z4z2 |
[V:1]f12- |
[V:2]d2e2d2 .c2.B2.c2 |
[V:3]B2c2B2 F4F2 |
[V:4]z12 |
[V:1]f12- |
[V:2]B4d2 f2=e2_e2 |
[V:3]D4B2 d2^c2=c2 |
[V:4]z12 |
[V:1]f12- |
[V:2]d2e2d2 .c2.B2.c2 |
[V:3]B2c2B2 F4F2 |
[V:4]B,,C,D,E,F,G, A,B,CDEF |
[V:1]f12- |
[V:2]B4d2 f2=e2_e2 |
[V:3]D4B2 d2^c2=c2 |
[V:4]D4z2 z4z2 |
[V:1]f12- |
[V:2]d2e2d2 .c2.B2.c2 |
[V:3]B2c2B2 F4F2 |
[V:4]B,,C,D,E,F,G, A,B,CDEF |
[V:1]f2.b2.b2 b2a2_a2 |
[V:2].B2.B2.B2 B2A2_A2 |
[V:3]F6- F4B,2 |
[V:4]D2D,2D,2 D,2D,2D,2 |
[V:1]^f4>g4 =a=bc'd' |
[V:2]^F4>G4 =A=Bcd |
[V:3]B,2B,2B,2 G2G2G2 |
[V:4]E,2E,2E,2 E,2E,2E,2 |
[V:1].e'2.e'2.e'2 .e'2.d'2.c'2 |
[V:2].e2.g2.g2 .g2.=f2.e2 |
[V:3]C2C2C2 C2D2E2 |
[V:4]E,2E,2E,2 E,2E,2E,2 |
[V:1]b6 !trill!c'6 |
[V:2]d2f2.B2 !trill!A6 |
[V:3]F2F2F2 E2E2E2 |
[V:4]F,2F,2F,2 F,2F,2F,2 |
[V:1]b4b2 a2.a2c'f |
[V:2]BcdedB edcBAc |
[V:3]DEFGFD CDEDCE |
[V:4]B,,4z2 F,4z2 |
[V:1].f'2.f'2d'b .a2.a2c'f |
[V:2]BcdcBd edcBAc |
[V:3]DCB,CDF CDEDCE |
[V:4]B,,4z2 F,4z2 |
[V:1].b2.b2b2 a2.a2c'f |
[V:2]BcdedB edcBAc |
[V:3]DEFGFD CDEDCE |
[V:4]B,,4z2 z2F,2F,2 |
[V:1].f'2.f'2d'b .a2.a2c'f |
[V:2]BcdcBd edcBAc |
[V:3]DCB,CDF CDEDCE |
[V:4]z2B,,2B,,2 z2F,2F,2 |
[V:1]b2z2e'a b2z2e'a |
[V:2]B2z2c2 d2z2c2 |
[V:3]D2z2Ac B2z2Ac |
[V:4]B,,2z2F,2 B,2z2F,2 |
[V:1]b2z2e'a .b2.b2.b2 |
[V:2]d2z2c2 .d2.d2.d2 |
[V:3]B2z2Ac .B2.F2.D2 |
[V:4]B,2z2F,,2 .B,,2.B,,2.B,,2 |
[V:1]b4z2 z4|]
[V:2]d4z2 z4|]
[V:3]B,4z2 z4|]
[V:4]B,,4z2 z4|]

